X:1
T:Pilgerchor
T:Pilgerchor
T:Chor der älteren Pilger aus "Tannhäuser"
T:Richard Wagner
T:Den norske Studentersangforening
T:Den norske Studentersangforening
T:Den norske Studentersangforening
C:Richard Wagner
Z:Den norske Studentersangforening
%%score [ 1 2 3 4 ]
L:1/8
Q:1/4=50
M:3/4
K:Eb
V:1 treble-8 nm="T1"
V:2 treble-8 nm="T2"
V:3 bass nm="B1"
V:4 bass nm="B2"
V:1
"^Andante maestoso" B2 | e4 B2 | G4 (3(GA) B | B2 c2 B2 | B2 A2 c2 | f4 e2 | d4 (3(Bc) d | %7
w: Be-|glückt darf|nun dich, _ o|Hei- mat, ich|schau- en und|grü- ßen|froh dei- * ne|
 (e2 c2) B3/2 G/ | G2 F2 (B>c) | (c2 B2) c2 | c4 (B>c) | (c2 B2) c2 | c4 c2 | B4 (3(Bcd) | %14
w: lieb- * li- chen|Au- en; nun _|laß _ ich|ruhn den _|Wan- * der-|stab, weil|Gott ge- * *|
 e2 d2 c2 | (_B2{/d} c3) B | B4 B2 | B4 (=A>_A) | A4 (_D>_d) | _d4 (c>_c) | _c4 (_F>_f) | %21
w: treu ich ge-|pil- * gert|hab'. Durch|Sühn' und _|Buß' hab' _|ich ver- *|söhnt den _|
 _f4 (e>=d) | d4 e2 | (_d2 _c2) (_GA) | B4 B2 | B4 (=A>_A) | A4 (_D>_d) | _d4 (c>_c) | %28
w: Her- ren, _|dem mein|Her- * ze _|frönt, der|mei- ne *|Reu' mit _|Se- gen _|
 _c4 (_F>_f) | _f4 (e>d) | d4 e2 | (d2 c2) (BA) | (G2 F) z B2 ||!p!"^cresc." B4 (B>c) | d4 d2 | %35
w: krönt, den _|Her- ren, _|dem mein|Lied * er- *|tönt, _ den|Her- ren, _|dem mein|
 d4 (d>e) | f6- | f4 B2 |!ff! e4 B2 | G4 (3(GA) B | B2 c2 B2 | B2 A2 c2 | f4 e2 | d4 (3(Bc) d | %44
w: Lied er- *|tönt!|_ Der|Gna- de|Heil ist _ dem|Bu- ßer be-|schie- den, er|geht einst|ein in _ der|
 (e2 c2) B3/2 G/ | G2 F2 (B>c) | (c2 B2) c2 | c4 (B>c) | (c2 B2) c2 | c4 c2 | B4 (3(Bcd) | %51
w: Se- * li- gen|Frie- den! Vor _|Höll' _ und|tod ist _|ihm _ nicht|bang, drum|preis' ich _ _|
 (e2 d2) c2 | (B2{/d} c3) B | B4 z3/2 e/ |!ff! e4- e d | d4 z3/2 g/ |!ff! g4- g f | f4 e2 | d4 c2 | %59
w: Gott _ mein|Le- * ben-|lang. Hal-|le- * lu-|ja! Hal-|le- * lu-|ja in|E- wig-|
 B4 B2 | (e2 d2 c2 | B2 A2 G2 | F4) F2 | E4 |] %64
w: keit! In|E- * *||* wig-|keit!|
V:2
 B2 | B4 B2 | G4 (3(GA) B | B2 A2 E2 | F4 A2 | =A4 A2 | B4 (3:2:2B2 B | (B2 G2) B3/2 G/ | %8
w: Be-|glückt darf|nun dich, _ o|Hei- mat, ich|schaun und|grü- ßen|froh dei- ne|lieb- * li- chen|
 G2 F2 (B>F) | F4 G2 | A4 (E>A) | A4 G2 | =A4 A2 | (G2 _A2) B2 | G2 =B2 G2 | (_B2 =A3) F | F4 B2 | %17
w: Au- en; nun _|laß ich|ruhn den _|Wan- der-|stab, weil|Gott _ ge-|treu ich ge-|pil- * gert|hab'. Durch|
 B4 (=A>_A) | (A2 _D2) (D>_d) | _d4 (c>_c) | (_c2 _F2) (F>_f) | _f4 (e>=d) | (d2 B2) B2 | A4 E2 | %24
w: Sühn' und _|Buß' _ hab' _|ich ver- *|söhnt _ den _|Her- ren, _|dem _ mein|Her- ze|
 F2 z2 (B,>B) | B4 (=A>_A) | (A2 _D2) (D>_d) | _d4 (c>_c) | (_c2 _F2) (F>_f) | _f4 (e>d) | %30
w: frönt, der *|mei- ne *|Reu' _ mit _|Se- gen _|krönt, _ den _|Her- ren, _|
 (d2 B2) B2 | A4 (FA) | (G2 F) z B2 ||!p!"^cresc." B4 B2 | B4 d2 | d4 (d>e) | f6- | f4 B2 | %38
w: dem _ mein|Lied er- *|tönt, _ den|Her- ren,|dem mein|Lied er- *|tönt!|_ Der|
!ff! e4 B2 | G4 (3(GA) B | B2 c2 B2 | B2 A2 c2 | f4 e2 | d4 (3(Bc) d | (e2 c2) B3/2 G/ | %45
w: Gna- de|Heil ist _ dem|Bu- ßer be-|schie- den, er|geht einst|ein in _ der|Se- * li- gen|
 G2 F2 (B>c) | (c2 B2) c2 | c4 (B>c) | (c2 B2) c2 | c4 c2 | B4 (3(Bcd) | (e2 d2) c2 | %52
w: Frie- den! Vor _|Höll' _ und|tod ist _|ihm _ nicht|bang, drum|preis' ich _ _|Gott _ mein|
 (B2{/d} c3) B | B4 z3/2 c/ |!ff! c4- c =B | =B4 z3/2 e/ |!ff! e4- e d | d4 c2 | =A4 A2 | %59
w: Le- * ben-|lang. Hal-|le- * lu-|ja! Hal-|le- * lu-|ja in|E- wig-|
 (G2 B2) B2 | (e2 d2 c2 | B2 A2 G2 | F4) F2 | E4 |] %64
w: keit! _ In|E- * *||* wig-|keit!|
V:3
 B,2 | G,4 E,2 | E,4 (3:2:2E,2 E, | E,2 E,2 E,2 | C,4 F,2 | C,4 C,2 | F,4 (3(D,E,) F, | %7
w: Be-|glückt darf|nun dich, o|Hei- mat, ich|schaun und|grü- ßen|froh dei- * ne|
 E,4 E,3/2 E,/ | D,4 (B,>D,) | D,4 E,2 | F,4 (G,>D,) | D,4 G,2 | ^F,4 F,2 | (G,2 _A,2) =F,2 | %14
w: lieb- li- chen|Aun; nun _|laß ich|ruhn den _|Wan- der-|stab, weil|Gott _ ge-|
 G,2 F,2 E,2 | (D,2 E,3) D, | D,4 B,,2 | (_G,2 F,2) F,2 | (F,2 A,2) _C2 | (__B,2 A,2) A,2 | %20
w: treu ich ge-|pil- * gert|hab'. Durch|Sühn' _ und|Buß' _ hab'|ich _ ver-|
 (A,2 _C2) __E2 | (__D2 _C2) C2 | (_B,2 _A,2) =G,2 | E,4 E,2 | (=D,2 F,2) A,2 | (_G,2 F,2) F,2 | %26
w: söhnt _ den|Her- * ren,|dem _ mein|Her- ze|frönt, _ der|mei- * ne|
 (F,2 A,2) _C2 | (__B,2 A,2) A,2 | (A,2 _C2) __E2 | (__D2 _C2) C2 | (_B,2 _A,2) =G,2 | E,4 C,2 | %32
w: Reu' _ mit|Se- * gen|krönt, _ den|Her- * ren,|dem _ mein|Lied er-|
 D,2- D, z F,2 ||!p!"^cresc." G,4 G,2 | F,4 B,2 | B,4 B,2 | F,6- | F,4 B,2 |!ff! E4 B,2 | %39
w: tönt, _ den|Her- ren,|dem mein|Lied er-|tönt!|_ Der|Gna- de|
 G,4 (3(G,A,) B, | B,2 C2 B,2 | B,2 A,2 C2 | F4 E2 | D4 (3(B,C) D | (E2 C2) B,3/2 G,/ | %45
w: Heil ist _ dem|Bu- ßer be-|schie- den, er|geht einst|ein in _ der|Se- * li- gen|
 G,2 F,2 (B,>C) | (C2 B,2) C2 | C4 (B,>C) | (C2 B,2) C2 | C4 C2 | B,4 (3(B,CD) | (E2 D2) C2 | %52
w: Frie- den! Vor _|Höll' _ und|tod ist _|ihm _ nicht|bang, drum|preis' ich _ _|Gott _ mein|
 (B,2{/D} C3) B, | B,4 z3/2 G,/ |!ff! G,4- G, G, | G,4 z3/2 B,/ |!ff! B,4- B, B, | B,4 G,2 | %58
w: Le- * ben-|lang. Hal-|le- * lu-|ja! Hal-|le- * lu-|ja in|
 ^F,4 F,2 | (G,2 A,2) =F,2 | (E,6- | E,6- | E,2 D,C,) D,2 | E,4 |] %64
w: E- wig-|keit! _ In|E-||* * * wig-|keit!|
V:4
 B,2 | E,4 G,,2 | C,4 (3(B,,C,) G,, | G,,2 A,,2 G,,2 | F,,4 F,,2 | F,,4 F,,2 | %6
w: Be-|glückt darf|nun dich, _ o|Hei- mat, ich|schaun und|grü- ßen|
 _A,,4 (3:2:2A,,2 A,, | (G,,2 E,,2) G,,3/2 B,,/ | B,,4 (B,>A,) | A,4 G,2 | F,4 (G,>F,) | F,4 E,2 | %12
w: froh dei- ne|lieb- * li- chen|Aun; nun _|laß ich|ruhn den _|Wan- der-|
 D,4 D,2 | (E,2 =F,2) D,2 | C,2 D,2 E,2 | (F,2 F,,2) F,,2 | B,,4 B,,2 | (E,2 _D,2) C,2 | %18
w: stab, weil|Gott _ ge-|treu ich ge-|pil- * gert|hab'. Durch|Sühn' _ und|
 (_D,2 F,2) A,2 | (_G,2 _F,2) E,2 | (_F,2 A,2) _C2 | (__B,2 __A,2) _G,2 | (F,2 _F,2) E,2 | %23
w: Buß _ hab'|ich _ ver-|söhnt _ den|Her- * ren,|dem _ mein|
 A,,4 _C,2 | (B,,2 D,2) F,2 | (E,2 _D,2) C,2 | (_D,2 F,2) A,2 | (_G,2 _F,2) E,2 | (_F,2 A,2) _C2 | %29
w: Her- ze|frönt, _ der|mei- * ne|Reu' _ mit|Se- * gen|krönt, _ den|
 (__B,2 __A,2) _G,2 | (F,2 _F,2) E,2 | A,,4 A,,2 | B,,2- B,, z D,2 ||!p!"^cresc." E,4 E,2 | %34
w: Her- * ren,|dem _ mein|Lied er-|tönt, _ den|Her- ren,|
 B,,4 B,2 | G,4 G,2 | F,6- | F,4 B,2 |!ff! E4 B,2 | G,4 (3(G,A,) B, | B,2 C2 B,2 | B,2 A,2 C2 | %42
w: dem mein|Lied er-|tönt!|_ Der|Gna- de|Heil ist _ dem|Bu- ßer be-|schie- den, er|
 F4 E2 | D4 (3(B,C) D | (E2 C2) B,3/2 G,/ | G,2 F,2 (B,>C) | (C2 B,2) C2 | C4 (B,>C) | %48
w: geht einst|ein in _ der|Se- * li- gen|Frie- den! Vor _|Höll' _ und|tod ist _|
 (C2 B,2) C2 | C4 C2 | B,4 (3(B,CD) | (E2 D2) C2 | (B,2{/D} C3) B, | B,4 z3/2 C,/ | %54
w: ihm _ nicht|bang, drum|preis' ich _ _|Gott _ mein|Le- * ben-|lang. Hal-|
!ff! C,4- C, G, | G,4 z3/2 E,/ |!ff! E,4- E, B,, | B,,4 C,2 | D,4 D,2 | (E,2 =F,2) D,2 | %60
w: le- * lu-|ja! Hal-|le- * lu-|ja in|E- wig-|keit! _ In|
 (C,2 B,,2 A,,2 | G,,2 A,,2 =A,,2 | B,,4) B,,2 | E,4 |] %64
w: E- * *||* wig-|keit!|

